public/images/corner-dashed-bl.svg

<?xml version="1.0" encoding="UTF-8" standalone="no"?>
<!DOCTYPE svg PUBLIC "-//W3C//DTD SVG 1.1//EN" "http://www.w3.org/Graphics/SVG/1.1/DTD/svg11.dtd">
<svg width="100%" height="100%" viewBox="0 0 116 68" version="1.1" xmlns="http://www.w3.org/2000/svg" xmlns:xlink="http://www.w3.org/1999/xlink" xml:space="preserve" xmlns:serif="http://www.serif.com/" style="fill-rule:evenodd;clip-rule:evenodd;stroke-linejoin:round;stroke-miterlimit:2;">
    <path d="M1.14,19.3C0.92,18 0.7,16.89 0.6,15.78C0.5,14.746 0.5,13.704 0.6,12.67C0.6,12.46 1.34,12.14 1.69,12.18C2.04,12.22 2.69,12.65 2.69,12.9C2.61,14.72 2.43,16.54 2.28,18.37C2.291,18.686 2.26,19.002 2.19,19.31C2.19,19.44 1.78,19.54 1.57,19.53C1.36,19.52 1.16,19.31 1.14,19.3ZM1.65,24.35C2.37,24.6 2.32,25.15 2.35,25.61C2.37,26.613 2.317,27.615 2.19,28.61C2.041,29.284 1.951,29.97 1.92,30.66C1.92,31.16 1.73,31.42 1.1,31.57C1.02,31.57 0.82,31.49 0.81,31.43C0.54,29.8 0.61,28.29 0.35,26.66C0.35,26.33 0.2,26.02 0.12,25.66C-0,25.07 0.63,24.34 1.65,24.35ZM1.38,6.08C1.27,5.08 1.22,3.54 1.14,2.87C1.03,2.223 0.983,1.566 1,0.91C1,0.59 1.39,0.25 1.69,0.01C1.78,-0.06 2.17,0.18 2.43,0.28C3.45,0.69 3,1.48 3,2.18C3,2.88 2.55,4.89 2.57,5.63C2.59,6.37 2.36,6.63 1.48,6.25C1.37,6.2 1.33,6 1.38,6.08ZM0.91,55.87C0.65,54.61 0.38,53.47 0.23,52.32C0.078,51.291 0.021,50.25 0.06,49.21C0.06,49.01 0.78,48.66 1.14,48.68C1.5,48.7 2.14,49.12 2.14,49.36C2.14,50.27 2.14,51.19 2.07,52.1L1.94,54.71C1.968,55.014 1.951,55.321 1.89,55.62C1.89,55.75 1.49,55.95 1.28,56C1.07,56.05 0.93,55.88 0.91,55.87ZM1.73,60.6C2.47,60.37 2.51,60.88 2.66,61.28C2.916,62.176 3.318,63.024 3.85,63.79C4.175,64.348 4.684,64.776 5.29,65C5.77,65.1 5.84,65.38 5.59,66C5.52,66.103 5.418,66.18 5.3,66.22C3.624,66.08 2.123,65.116 1.3,63.65C1.11,63.38 0.91,63.13 0.74,62.86C0.37,62.33 0.74,61.22 1.73,60.6ZM0.64,42.6C0.49,41.6 0.38,40.07 0.28,39.4C0.121,38.744 0.027,38.074 0,37.4C-0,37.08 0.37,36.73 0.66,36.48C0.75,36.41 1.15,36.63 1.41,36.72C2.49,37.09 2.1,37.9 2.11,38.6C2.12,39.3 1.77,41.32 1.82,42.07C1.87,42.82 1.65,43.07 0.76,42.73C0.63,42.72 0.58,42.5 0.64,42.6ZM29.83,65.59C28.53,65.88 27.45,66.18 26.35,66.36C25.329,66.533 24.295,66.617 23.26,66.61C23.05,66.61 22.68,65.91 22.69,65.61C22.7,65.31 23.1,64.61 23.34,64.61C25.17,64.56 27,64.61 28.83,64.61C29.161,64.56 29.499,64.56 29.83,64.61C29.96,64.61 30.09,65.01 30.08,65.22C30.07,65.43 29.84,65.57 29.83,65.59ZM34.84,64.78C35.04,64.05 35.6,64.06 36.06,64.01C37.058,63.931 38.062,63.931 39.06,64.01C39.744,64.122 40.437,64.176 41.13,64.17C41.63,64.11 41.89,64.33 42.13,64.95C42.137,65.063 42.093,65.173 42.01,65.25C40.39,65.59 38.88,65.61 37.27,65.95C36.932,66.028 36.598,66.125 36.27,66.24C35.65,66.42 34.89,65.8 34.84,64.78ZM16.63,66.26C16.16,66.35 15.54,66.44 14.93,66.53L13.35,66.75C12.652,66.935 11.939,67.059 11.22,67.12C10.87,67.12 10.58,66.77 10.42,66.49C10.37,66.4 10.71,65.99 10.86,65.73C11.52,64.62 12.14,64.98 12.8,64.94C13.46,64.9 15.3,65.18 16.09,65.1C16.88,65.02 17.09,65.23 16.79,66.1C16.75,66.27 16.53,66.32 16.63,66.26ZM66.31,64.25C65.02,64.54 63.93,64.84 62.84,65.02C61.816,65.193 60.779,65.276 59.74,65.27C59.54,65.27 59.16,64.58 59.18,64.27C59.2,63.96 59.58,63.27 59.82,63.27C61.65,63.22 63.48,63.27 65.32,63.27C65.651,63.22 65.989,63.22 66.32,63.27C66.45,63.27 66.57,63.67 66.57,63.88C66.534,64.032 66.441,64.165 66.31,64.25ZM71.33,63.44C71.53,62.71 72.08,62.73 72.55,62.67C73.548,62.591 74.552,62.591 75.55,62.67C76.231,62.782 76.92,62.836 77.61,62.83C78.11,62.77 78.38,62.99 78.61,63.61C78.614,63.724 78.566,63.835 78.48,63.91C76.87,64.26 75.35,64.27 73.74,64.61C73.42,64.68 73.11,64.8 72.74,64.9C72.14,65.08 71.37,64.46 71.33,63.44ZM53.12,64.92C52.18,65.11 50.6,65.28 49.93,65.41C49.296,65.589 48.646,65.709 47.99,65.77C47.67,65.77 47.31,65.43 47.05,65.15C46.97,65.06 47.17,64.65 47.25,64.39C47.57,63.29 48.4,63.65 49.1,63.61C49.8,63.57 51.84,63.84 52.58,63.76C53.32,63.68 53.58,63.89 53.28,64.76C53.24,64.93 53,65 53.12,64.92ZM102.8,62.91C101.5,63.2 100.42,63.5 99.32,63.68C98.299,63.851 97.265,63.938 96.23,63.94C96.02,63.94 95.65,63.24 95.66,62.88C95.67,62.52 96.07,61.88 96.31,61.88L101.8,61.88C102.131,61.83 102.469,61.83 102.8,61.88C102.93,61.88 103.06,62.28 103.06,62.49C103.025,62.656 102.933,62.804 102.8,62.91ZM107.81,62.1C108.02,61.37 108.57,61.39 109.03,61.33C110.028,61.252 111.032,61.252 112.03,61.33C112.711,61.44 113.4,61.497 114.09,61.5C114.59,61.43 114.86,61.65 115.04,62.27C115.047,62.383 115.003,62.493 114.92,62.57C113.31,62.92 111.79,62.93 110.18,63.27C109.86,63.34 109.54,63.46 109.23,63.56C108.62,63.74 107.86,63.12 107.81,62.1ZM89.6,63.58C88.66,63.77 87.08,63.94 86.42,64.07C85.785,64.248 85.136,64.368 84.48,64.43C84.16,64.43 83.79,64.09 83.48,63.81C83.4,63.72 83.61,63.31 83.68,63.05C84.01,61.95 84.84,62.31 85.54,62.27C86.24,62.23 88.27,62.5 89.01,62.42C89.75,62.34 90.01,62.55 89.71,63.42C89.72,63.59 89.5,63.65 89.6,63.58Z" style="fill:white;fill-rule:nonzero;"/>
</svg>

<svg xmlns="http://www.w3.org/2000/svg" viewBox="0 0 115.07 67.12"><path d="M1.14 19.3C.92 18 .7 16.89.6 15.78a16.16 16.16 0 010-3.11c0-.21.74-.53 1.09-.49s1 .47 1 .72c-.08 1.82-.26 3.64-.41 5.47a3.66 3.66 0 01-.09.94c0 .13-.41.23-.62.22s-.41-.22-.43-.23zm.51 5.05c.72.25.67.8.7 1.26a20.45 20.45 0 01-.16 3 12 12 0 00-.27 2.05c0 .5-.19.76-.82.91-.08 0-.28-.08-.29-.14-.27-1.63-.2-3.14-.46-4.77 0-.33-.15-.64-.23-1-.12-.59.51-1.32 1.53-1.31zM1.38 6.08c-.11-1-.16-2.54-.24-3.21A10.16 10.16 0 011 .91c0-.32.39-.66.69-.9.09-.07.48.17.74.27 1.02.41.57 1.2.57 1.9s-.45 2.71-.43 3.45-.21 1-1.09.62c-.11-.05-.15-.25-.1-.17zM.91 55.87c-.26-1.26-.53-2.4-.68-3.55a17 17 0 01-.17-3.11c0-.2.72-.55 1.08-.53s1 .44 1 .68c0 .91 0 1.83-.07 2.74l-.13 2.61a3.12 3.12 0 01-.05.91c0 .13-.4.33-.61.38s-.35-.12-.37-.13zm.82 4.73c.74-.23.78.28.93.68a8.48 8.48 0 001.19 2.51A2.78 2.78 0 005.29 65c.48.1.55.38.3 1a.57.57 0 01-.29.22 5.07 5.07 0 01-4-2.57c-.19-.27-.39-.52-.56-.79-.37-.53 0-1.64.99-2.26zm-1.09-18c-.15-1-.26-2.53-.36-3.2a10.18 10.18 0 01-.28-2c0-.32.37-.67.66-.92.09-.07.49.15.75.24 1.08.37.69 1.18.7 1.88s-.34 2.72-.29 3.47-.17 1-1.06.66c-.13-.01-.18-.23-.12-.13zm29.19 22.99c-1.3.29-2.38.59-3.48.77a17.81 17.81 0 01-3.09.25c-.21 0-.58-.7-.57-1s.41-1 .65-1c1.83-.05 3.66 0 5.49 0a3.35 3.35 0 011 0c.13 0 .26.4.25.61s-.24.35-.25.37zm5.01-.81c.2-.73.76-.72 1.22-.77a19 19 0 013 0 12.19 12.19 0 002.07.16c.5-.06.76.16 1 .78a.38.38 0 01-.12.3c-1.62.34-3.13.36-4.74.7a9.53 9.53 0 00-1 .29c-.62.18-1.38-.44-1.43-1.46zm-18.21 1.48c-.47.09-1.09.18-1.7.27l-1.58.22a12.35 12.35 0 01-2.13.37c-.35 0-.64-.35-.8-.63-.05-.09.29-.5.44-.76.66-1.11 1.28-.75 1.94-.79s2.5.24 3.29.16 1 .13.7 1c-.04.17-.26.22-.16.16zm49.68-2.01c-1.29.29-2.38.59-3.47.77a18 18 0 01-3.1.25c-.2 0-.58-.69-.56-1s.4-1 .64-1c1.83-.05 3.66 0 5.5 0a3.35 3.35 0 011 0c.13 0 .25.4.25.61a.61.61 0 01-.26.37zm5.02-.81c.2-.73.75-.71 1.22-.77a19 19 0 013 0 12.07 12.07 0 002.06.16c.5-.06.77.16 1 .78a.38.38 0 01-.13.3c-1.61.35-3.13.36-4.74.7-.32.07-.63.19-1 .29-.6.18-1.37-.44-1.41-1.46zm-18.21 1.48c-.94.19-2.52.36-3.19.49a10.85 10.85 0 01-1.94.36c-.32 0-.68-.34-.94-.62-.08-.09.12-.5.2-.76.32-1.1 1.15-.74 1.85-.78s2.74.23 3.48.15 1 .13.7 1c-.04.17-.28.24-.16.16zm49.68-2.01c-1.3.29-2.38.59-3.48.77a18.86 18.86 0 01-3.09.26c-.21 0-.58-.7-.57-1.06s.41-1 .65-1h5.49a3.35 3.35 0 011 0c.13 0 .26.4.26.61a.73.73 0 01-.26.42zm5.01-.81c.21-.73.76-.71 1.22-.77a19.15 19.15 0 013 0 13.21 13.21 0 002.06.17c.5-.07.77.15.95.77a.38.38 0 01-.12.3c-1.61.35-3.13.36-4.74.7-.32.07-.64.19-.95.29-.61.18-1.37-.44-1.42-1.46zM89.6 63.58c-.94.19-2.52.36-3.18.49a11 11 0 01-1.94.36c-.32 0-.69-.34-1-.62-.08-.09.13-.5.2-.76.33-1.1 1.16-.74 1.86-.78s2.73.23 3.47.15 1 .13.7 1c.01.17-.21.23-.11.16z" fill="#FFFFFF"/></svg>
